COLOR/action 16/16/document-save-as.svg

<svg height="16" viewBox="0 0 4.233125 4.233125" width="16" xmlns="http://www.w3.org/2000/svg"><g enable-background="new" fill="#45a925" stroke-width=".642857" transform="matrix(0 -.30866537 -.30866537 0 22.931799 117.190125)"><path d="m373.66722 64.007682-5.57144 4.285715 5.57144 4.285713v-2.857142h5.57142v-2.857143h-5.57142z"/><g transform="matrix(0 -.85714284 -.85714284 0 379.66723 74.293398)"><path d="m14 8v1h1v-1zm-2 2v1h3v-1zm-2 2v1h5v-1zm-8 2v1h13v-1z" stroke-width=".73297"/><path d="m14 8v.1992188h1v-.1992188zm-2 2v.199219h3v-.199219zm-2 2v.199219h5v-.199219zm-8 2v.199219h13v-.199219z" fill="#fff" opacity=".3" stroke-width=".73297"/><path d="m14 8.8007812v.1992188h1v-.1992188zm-2 1.9999998v.199219h3v-.199219zm-2 2v.199219h5v-.199219zm-8 2v.199219h13v-.199219z" fill="#000" opacity=".2" stroke-width=".73297"/><path d="m5.3339844.5v.5h3.3320312v-.5zm-3.3339844 6.5.3847656.5h2.9492188v-.5zm6.6660156 0v.5h2.9492184l.384766-.5z" fill="#fff" opacity=".3" stroke-width=".75"/><path d="m2 7 5 6.5 5-6.5h-.384766l-4.615234 6-4.6152344-6z" fill="#000" opacity=".2" stroke-width=".75"/></g></g></svg>

<?xml version="1.0" encoding="UTF-8" standalone="no"?>
<svg
   xmlns:dc="http://purl.org/dc/elements/1.1/"
   xmlns:cc="http://creativecommons.org/ns#"
   xmlns:rdf="http://www.w3.org/1999/02/22-rdf-syntax-ns#"
   xmlns:svg="http://www.w3.org/2000/svg"
   xmlns="http://www.w3.org/2000/svg"
   xmlns:sodipodi="http://sodipodi.sourceforge.net/DTD/sodipodi-0.dtd"
   xmlns:inkscape="http://www.inkscape.org/namespaces/inkscape"
   height="16"
   viewBox="0 0 4.233125 4.233125"
   width="16"
   version="1.1"
   id="svg16"
   sodipodi:docname="document-save-as.svg"
   inkscape:version="0.92.4 (5da689c313, 2019-01-14)">
  <metadata
     id="metadata22">
    <rdf:RDF>
      <cc:Work
         rdf:about="">
        <dc:format>image/svg+xml</dc:format>
        <dc:type
           rdf:resource="http://purl.org/dc/dcmitype/StillImage" />
      </cc:Work>
    </rdf:RDF>
  </metadata>
  <defs
     id="defs20" />
  <sodipodi:namedview
     pagecolor="#ffffff"
     bordercolor="#808080"
     borderopacity="1"
     objecttolerance="10"
     gridtolerance="10"
     guidetolerance="10"
     inkscape:pageopacity="0"
     inkscape:pageshadow="2"
     inkscape:window-width="1920"
     inkscape:window-height="1016"
     id="namedview18"
     showgrid="false"
     inkscape:zoom="14.75"
     inkscape:cx="8"
     inkscape:cy="8"
     inkscape:window-x="0"
     inkscape:window-y="27"
     inkscape:window-maximized="1"
     inkscape:current-layer="g12" />
  <g
     enable-background="new"
     fill="#45a925"
     stroke-width=".642857"
     transform="matrix(0 -.30866537049 -.30866537049 0 22.93179922534 117.19012517674)"
     id="g14">
    <path
       d="m373.66722 64.007682-5.57144 4.285715 5.57144 4.285713v-2.857142h5.57142v-2.857143h-5.57142z"
       id="path2" />
    <g
       transform="scale(-1)"
       id="g12">
      <path
         style="stroke-width:0.73297006"
         d="M 14 8 L 14 9 L 15 9 L 15 8 L 14 8 z M 12 10 L 12 11 L 15 11 L 15 10 L 12 10 z M 10 12 L 10 13 L 15 13 L 15 12 L 10 12 z M 2 14 L 2 15 L 15 15 L 15 14 L 2 14 z "
         transform="matrix(0,0.85714284,0.85714284,0,-379.66723,-74.293398)"
         id="path4" />
      <path
         style="stroke-width:0.73297006;fill:#ffffff;fill-opacity:1;opacity:0.3"
         d="M 14 8 L 14 8.1992188 L 15 8.1992188 L 15 8 L 14 8 z M 12 10 L 12 10.199219 L 15 10.199219 L 15 10 L 12 10 z M 10 12 L 10 12.199219 L 15 12.199219 L 15 12 L 10 12 z M 2 14 L 2 14.199219 L 15 14.199219 L 15 14 L 2 14 z "
         transform="matrix(0,0.85714284,0.85714284,0,-379.66723,-74.293398)"
         id="path851" />
      <path
         style="stroke-width:0.73297006;fill:#000000;fill-opacity:1;opacity:0.2"
         d="M 14 8.8007812 L 14 9 L 15 9 L 15 8.8007812 L 14 8.8007812 z M 12 10.800781 L 12 11 L 15 11 L 15 10.800781 L 12 10.800781 z M 10 12.800781 L 10 13 L 15 13 L 15 12.800781 L 10 12.800781 z M 2 14.800781 L 2 15 L 15 15 L 15 14.800781 L 2 14.800781 z "
         transform="matrix(0,0.85714284,0.85714284,0,-379.66723,-74.293398)"
         id="path862" />
    </g>
    <path
       style="stroke-width:0.74999988;fill:#ffffff;fill-opacity:1;opacity:0.3"
       d="M 5.3339844 0.5 L 5.3339844 1 L 8.6660156 1 L 8.6660156 0.5 L 5.3339844 0.5 z M 2 7 L 2.3847656 7.5 L 5.3339844 7.5 L 5.3339844 7 L 2 7 z M 8.6660156 7 L 8.6660156 7.5 L 11.615234 7.5 L 12 7 L 8.6660156 7 z "
       transform="matrix(0,-0.85714284,-0.85714284,0,379.66723,74.293398)"
       id="path840" />
    <path
       style="stroke-width:0.74999988;fill:#000000;fill-opacity:1;opacity:0.2"
       d="M 2 7 L 7 13.5 L 12 7 L 11.615234 7 L 7 13 L 2.3847656 7 L 2 7 z "
       transform="matrix(0,-0.85714284,-0.85714284,0,379.66723,74.293398)"
       id="path845" />
  </g>
</svg>
